X:1
C: W. Crotch
M: none
L:1/2
%%staves [(1 2) (3 4)]
K:F
V:1 clef=treble
A2 | B A | G2 || A2 | F G | F E | D2 |]
V:2 clef=treble
F2 | F F | E2 || E2 | D D | D ^C | D2 |]
V:3 clef=bass octave=-1
d2 | d c | c2 || ^c2 | d B | A>G | F2 |]
V:4 clef=bass octave=-1
D2 | B, F | C2 || A,2 | B, G, | A, A, | D2 |]
